X:1
T:C Major Nehemiah Shumway, 1793
T:John Newton, 1779 (Hymn 77, Book 2) 87. 87. 11
T:Nixington No copyright.  Transcribed from The American Harmony, 1793.
%%score [ 1 2 3 4 ]
L:1/8
M:4/4
K:C
V:1 treble nm="Treble" snm="Tr."
V:2 treble nm="Counter" snm="C."
V:3 treble-8 nm="Tenor" snm="T."
V:4 bass nm="Bass" snm="B."
V:1
 c6 c2 | e4 c4 | B6 A2 | B4 B4 | c4 z2 c2 | e4 c4 | d4 d4 | d6 z2 |: z8 | z8 | c2 e2 e2 ef | %11
w: ||||||||||Lou- der than ten *|
 g2 g2 d2 d2 | e2 c2 c2 d2 | e2 c2 A2 A2 | c6 e2 | d2 d2 d2 d2 | c6 z2 | z8 | e2 de c2 c2 | %19
w: thou- sand thun- ders,|Lou- der than ten|thou- sand thun- ders,|Shakes the|vast cre- a- tion|round;||Lou- der * than ten|
 c2 c2 f2 e2 | d3 B G2 d2 | e2 e2 e4 | e2 e2 c2 c2 | de dc B2 c2 | d6 d2 | e8 :| %26
w: thou- sand thun- ders,|Shakes the vast cre-|a- tion round.|||||
V:2
 E6 E2 | E4 E4 | G6 A2 | G4 G4 | G4 z2 G2 | G4 E4 | A4 A4 | G6 z2 |: z8 | z8 | z8 | G2 G2 G2 G2 | %12
w: 1.~Day of|judg- ment,|day of|won- ders,|Hark! The|trum- pet's|aw- ful|sound;||||Lou- der than ten|
 G2 G2 E2 E2 | A2 A2 A2 E2 | A2 A2 A2 E2 | F3 E D2 D2 | E2 E2 E4 | E2 E2 EF G2 | A2 GF E2 E2 | %19
w: thou- sand thun- ders,|Lou- der than ten|thou- sand thun- ders,|Shakes the vast cre-|a- tion round,|Lou- der than * ten|thou- sand * thun- ders,|
 F6 A2 | G6 G2 | G2 G2 G4 | E2 E2 F2 F2 | G2 A2 GF EF | G6 G2 | G8 :| %26
w: Shakes the|vast cre-|a- tion round.|How the sum- mons|will the sin- * ner's *|heart con-|found!|
V:3
 G6 G2 | c4 c4 | d6 e2 | d4 d4 | e4 z2 g2 | g4 c4 | f4 f2 e2 |{e} d8 |: z8 | c2 c2 c2 d2 | %10
w: |||||||||Lou- der than ten|
 e2 c2 c2 e2 | d2 d2 d2 G2 | cd ef g2 g2 | e6 df | e2 c2 A2 A2 | A4 z4 | G2 G2 c2 d2 | %17
w: thou- sand thun- ders,|Lou- der than ten|thou- * sand * thun- ders,|Shakes the *|vast cre- a- tion|round,|Lou- der than ten|
 e2 g2 g2 f2 | e2 d2 ef g2 | a2 f2 f2 a2 | d3 e d2 B2 | c2 c2 c4 | e2 c2 A2 Bc | d2 fd e3 c | %24
w: thou- sand thun- ders,|Lou- der than * ten|thou- sand thun- ders,|Shakes the vast cre-|a- tion round.|||
 d6 B2 | c8 :| %26
w: ||
V:4
 C,6 C,2 | C,4 C,4 | G,6 C2 | G,4 G,4 | C4 z2 C2 | C4 E,4 | F,4 F,4 | G,8 |: C,2 C,2 C,2 C,2 | %9
w: ||||||||Lou- der than ten|
 F,2 F,2 F,2 G,2 | C2 C2 C,2 C,2 | G,2 G,2 G,2 G,2 | C6 G,2 | E,2 C,2 A,,2 A,,2 | A,,4 z4 | %15
w: thou- sand thun- ders,|Lou- der than ten|thou- sand thun- ders,|Shakes the|vast cre- a- tion|round,|
 D,2 D,2 D,2 G,2 | C,2 C,2 C,2 G,2 | C2 C2 C2 G,2 | A,2 G,2 C,2 C,2 | F,6 A,2 | G,6 G,,2 | %21
w: Lou- der than ten|thou- sand thun- ders,|Lou- der than ten|thou- sand thun- ders,|Shakes the|vast cre-|
 C,2 C,2 C,4 | E,2 E,2 F,2 F,2 | D,2 E,F, G,2 C2 | G,6 G,2 | C,8 :| %26
w: a- tion round.|||||

